X:1
T: The Boy from the Mountain
C:
R:Jig
Q:180
K:D
M:6/8
L:1/16
F4F2 G4G2|A4D2 G2E2D2|F4F2 G4G2|A2d2c2 d3cBG|F4F2 G4G2|A4A2 A2d2e2|f2e2d2 c2A2G2|A2d2c2 d3cAG|
F4F2 G4G2|A4D2 G2E2D2|F4F2 G4G2|A2d2c2 d3cBG|F4F2 G4G2|A4A2 A2d2e2|f2e2d2 c2A2G2|A2d2c2 d4(3ABc|
d4e2 f4g2|e4d2 c2A2G2|d4e2 f4g2|fga2f2 g2e2c2|d4e2 f4g2|e4d2 c2d2e2|f2e2d2 c2A2G2|A2B2c2 d4(3ABc|
d4e2 f4g2|e4d2 c2A2G2|d4e2 f4g2|fga2f2 g2e2c2|d4e2 f2e2df|e2d2ce d4e2|f2e2d2 c2A2G2|A2d2c2 d3cAG||
